Gurmukhi/0A24.svg

<svg enable-background="new 0 0 336 592" viewBox="0 0 336 592" xmlns="http://www.w3.org/2000/svg"><path d="m151.975647 263.641296c12.940979.006409 24.977493 2.438874 36.653534 6.551941 3.16745 1.115784 5.26123.681336 7.494018-1.692566 13.054291-13.87944 15.815796-30.165634 11.692933-48.216919-.826691-3.619537-3.404343-3.073837-5.817292-3.077072-20.162567-.026992-40.325164-.012085-60.487762-.01033-16.996559.001495-33.995964-.168274-50.987816.114899-4.658806.077636-7.070351-1.342819-8.205795-5.854996-.847031-3.366058-2.501534-6.521439-3.661591-9.818069-1.553573-4.414872-.367401-6.143235 4.376244-6.487381 1.658607-.120331 3.3311-.06395 4.997253-.063691 58.154923.009018 116.310044.088746 174.464432-.080871 5.340851-.015564 8.428772 1.454803 9.731842 6.737717.711914 2.886169 2.153778 5.58522 3.146301 8.410842 1.734101 4.9366.430725 6.92096-4.779327 6.972382-10.330322.101974-20.663162.144485-30.992813.025497-4.012696-.046203-5.154053.735276-4.692398 5.423325 2.258117 22.930832-3.528138 42.935715-23.127076 57.225082.397278 2.689881 2.869492 3.082337 4.538941 4.240784 17.885132 12.410553 28.641846 28.963593 27.549911 51.223786-1.13153 23.067321-13.790069 38.734161-34.510376 47.934753-19.684997 8.740875-40.102417 8.675598-60.622085 3.473602-17.397965-4.410553-33.204628-11.878387-45.54097-25.461242-3.420006-3.765564-6.098114-7.939454-7.128662-12.972901-.788841-3.852966-.521217-7.545135 2.354103-10.511719 2.319359.108948 3.464851 1.691834 4.827064 2.844544 19.701607 16.671692 42.269928 25.729339 68.249756 25.002777 11.251404-.314667 21.979859-3.079803 31.69664-9.296204 21.57721-13.804199 22.11911-43.73706 1.125199-58.472778-6.116211-4.292999-11.416031-5.829895-19.183075-2.906494-15.754379 5.929809-32.40712 7.107391-49.162811 4.35968-4.996354-.819397-9.61866-2.726746-13.776864-5.599213-9.736145-6.725708-9.186798-19.156463 1.142167-24.971435 8.764366-4.934113 18.413169-5.303925 28.636375-5.04773z"/></svg>

<svg version="1.1" id="Layer_1" xmlns="http://www.w3.org/2000/svg" xmlns:xlink="http://www.w3.org/1999/xlink" x="0px" y="0px"
	 width="100%" viewBox="0 0 336 592" enable-background="new 0 0 336 592" xml:space="preserve">
<path fill="#000000" opacity="1.000000" stroke="none" 
	d="
M151.975647,263.641296 
	C164.916626,263.647705 176.953140,266.080170 188.629181,270.193237 
	C191.796631,271.309021 193.890411,270.874573 196.123199,268.500671 
	C209.177490,254.621231 211.938995,238.335037 207.816132,220.283752 
	C206.989441,216.664215 204.411789,217.209915 201.998840,217.206680 
	C181.836273,217.179688 161.673676,217.194595 141.511078,217.196350 
	C124.514519,217.197845 107.515114,217.028076 90.523262,217.311249 
	C85.864456,217.388885 83.452911,215.968430 82.317467,211.456253 
	C81.470436,208.090195 79.815933,204.934814 78.655876,201.638184 
	C77.102303,197.223312 78.288475,195.494949 83.032120,195.150803 
	C84.690727,195.030472 86.363220,195.086853 88.029373,195.087112 
	C146.184296,195.096130 204.339417,195.175858 262.493805,195.006241 
	C267.834656,194.990677 270.922577,196.461044 272.225647,201.743958 
	C272.937561,204.630127 274.379425,207.329178 275.371948,210.154800 
	C277.106049,215.091400 275.802673,217.075760 270.592621,217.127182 
	C260.262299,217.229156 249.929459,217.271667 239.599808,217.152679 
	C235.587112,217.106476 234.445755,217.887955 234.907410,222.576004 
	C237.165527,245.506836 231.379272,265.511719 211.780334,279.801086 
	C212.177612,282.490967 214.649826,282.883423 216.319275,284.041870 
	C234.204407,296.452423 244.961121,313.005463 243.869186,335.265656 
	C242.737656,358.332977 230.079117,373.999817 209.358810,383.200409 
	C189.673813,391.941284 169.256393,391.876007 148.736725,386.674011 
	C131.338760,382.263458 115.532097,374.795624 103.195755,361.212769 
	C99.775749,357.447205 97.097641,353.273315 96.067093,348.239868 
	C95.278252,344.386902 95.545876,340.694733 98.421196,337.728149 
	C100.740555,337.837097 101.886047,339.419983 103.248260,340.572693 
	C122.949867,357.244385 145.518188,366.302032 171.498016,365.575470 
	C182.749420,365.260803 193.477875,362.495667 203.194656,356.279266 
	C224.771866,342.475067 225.313766,312.542206 204.319855,297.806488 
	C198.203644,293.513489 192.903824,291.976593 185.136780,294.899994 
	C169.382401,300.829803 152.729660,302.007385 135.973969,299.259674 
	C130.977615,298.440277 126.355309,296.532928 122.197105,293.660461 
	C112.460960,286.934753 113.010307,274.503998 123.339272,268.689026 
	C132.103638,263.754913 141.752441,263.385101 151.975647,263.641296 
z"/>
</svg>
